!!!OTL: Dayanjing sai dengzhan li
!!!ARE: Asia, China,ÿQinghai, Minhe
!! I, 257
!!!SCT: C1437
!!!YEM: Copyright 1995, estate of Helmut Schaffrath.
**kern
*ICvox
*Ivox
*M2/4
*k[]
*C:
{8a
16cc
16a
8cc
8dd
=1
8dd
16cc
16dd
8cc
8a
=2
16cc
16dd
4cc
8a
=3
4.g
8a}
=4
{4dd
8.dd
16gg
=5
4dd
8cc
8a
=6
16cc
16dd
4cc
8a
=7
4g
4r}
=8
{16a
16cc
4cc
8dd
=9
8.dd
16cc
8a
8g
=10
4cc
16dd
16cc
16a
16cc
=11
2a}
=12
{8.cc
16dd
8cc
8a
=13
8cc
4a
8g
=14
4g
4r}
==
!!!AGN: Shange, Huar, Ermeihua ling
!!!ONB: ESAC (Essen Associative Code) Database: HUANG
!!!AMT: simple duple
!!!AIN: vox
!!!EED: Helmut Schaffrath
!!!EEV: 1.0
*-
